X:1970
L:1/16
M:3/8
K:A
 e>e | (f2e2) e>A | (A2G2) e>e | (f2e2) e>B | (d2c2) a>a | (b2a2) f>d | (f2e2) e>c | (e2c2) c>A | 
 (c2B2) :: e>a | (ag) (ag) (ag) | (ba) (ba) (ba) | (ba) b[fa][eg][df] | ([df][ce]) e>a | 
 (ag) (ag) (ag) | (ba) ba gf | (fe) (^de) (=d>B) | (([DB]2[CA]2)) :: e>c' | c'4 b2 | d'4 c'2 | 
 (b2a2).f2 | (f2e2).c2 | (e2d2).B2 | (d2c2).A2 | (E2e2).G2 | A4 :: a>a | (ba) ([fa]2[df]2) | 
 ([df][ce]) [ce]2[Ac]2 | ([ce][Bd]) [Bd]2[GB]2 | ([Bd][Ac])[Ac]2 a>a | (ba) ([fa]2[df]2) | 
 ([df][ce]) [ce]2[Ac]2 | (ed) B2[DG]2 | [CA]4 :|

